2-ui/1-document/09-size-and-scroll/metric-client-width-height.svg

<svg xmlns="http://www.w3.org/2000/svg" width="500" height="493" viewBox="0 0 500 493"><defs><style>@import url(https://fonts.googleapis.com/css?family=Open+Sans:bold,italic,bolditalic%7CPT+Mono);@font-face{font-family:&apos;PT Mono&apos;;font-weight:700;font-style:normal;src:local(&apos;PT MonoBold&apos;),url(/font/PTMonoBold.woff2) format(&apos;woff2&apos;),url(/font/PTMonoBold.woff) format(&apos;woff&apos;),url(/font/PTMonoBold.ttf) format(&apos;truetype&apos;)}</style></defs><defs><linearGradient id="linearGradient-1" x1="50%" x2="50%" y1="0%" y2="100%"><stop offset="0%" stop-color="#FFF"/><stop offset="100%" stop-color="#D1CFCD"/></linearGradient><linearGradient id="linearGradient-2" x1="50%" x2="50%" y1="0%" y2="100%"><stop offset="0%" stop-color="#FFF"/><stop offset="100%" stop-color="#D1CFCD"/></linearGradient></defs><g id="dom" fill="none" fill-rule="evenodd" stroke="none" stroke-width="1"><g id="metric-client-width-height.svg"><path id="Rectangle-2" fill="#DBAF88" d="M411 130v290H21V130h390zm-25 25H46v240h340V155z"/><path id="Rectangle-1" stroke="#C06334" stroke-width="2" d="M350 177v199H67V177h283z"/><g id="Group" transform="translate(370 155)"><rect id="Rectangle-19" width="15" height="239" x=".5" y=".5" fill="#D1CFCD" stroke="#D1CFCD" rx="3"/><g id="Rectangle-18-+-Triangle-1"><rect id="Rectangle-18" width="15" height="19" x=".5" y=".5" fill="url(#linearGradient-1)" stroke="#D1CFCD" rx="3"/><path id="Triangle-1" fill="#7E7C7B" d="M8 7l3.2 6H4.8z"/></g><g id="Rectangle-18-+-Triangle-2" transform="matrix(1 0 0 -1 0 240)"><rect id="Rectangle-18" width="15" height="19" x=".5" y=".5" fill="url(#linearGradient-1)" stroke="#D1CFCD" rx="3"/><path id="Triangle-1" fill="#7E7C7B" d="M8 7l3.2 6H4.8z"/></g><g id="Rectangle-18-+-Triangle-3-+-Group" transform="translate(0 50)"><g id="Rectangle-18-+-Triangle-3" fill="url(#linearGradient-2)" stroke="#D1CFCD" transform="matrix(1 0 0 -1 0 51)"><rect id="Rectangle-18" width="15" height="50" x=".5" y=".5" rx="3"/></g><g id="Group" fill="#D1CFCD" stroke="#7E7C7B" transform="translate(4 20)"><path id="Rectangle-22" d="M.5.5h7v1h-7z"/><path id="Rectangle-23" d="M.5 3.5h7v1h-7z"/><path id="Rectangle-24" d="M.5 6.5h7v1h-7z"/><path id="Rectangle-25" d="M.5 9.5h7v1h-7z"/></g></g></g><text id="border" font-family="PTMono-Regular, PT Mono" font-size="12" font-weight="normal"><tspan x="12.9" y="75" fill="#C06334">border</tspan> <tspan x="20.1" y="89" fill="#1C85B5">25px</tspan></text><text id="padding" font-family="PTMono-Regular, PT Mono" font-size="12" font-weight="normal"><tspan x="32.3" y="45" fill="#C06334">padding</tspan> <tspan x="43.1" y="59" fill="#1C85B5">20px</tspan></text><text id="content-width:284px" font-family="PTMono-Regular, PT Mono" font-size="12" font-weight="normal"><tspan x="139.1" y="109" fill="#C06334">content width:</tspan> <tspan x="239.9" y="109" fill="#1C85B5">284px</tspan></text><path id="Line-15" fill="#C06334" fill-rule="nonzero" d="M336.5 110l14 7-14 7v-6H82.679l.001 6-14-7 14-7-.001 6H336.5v-6z"/><path id="Line-14" stroke="#C06334" stroke-dasharray="3,6" stroke-linecap="square" stroke-width="2" d="M21.48 93v43"/><path id="Line-13" stroke="#C06334" stroke-dasharray="3,6" stroke-linecap="square" stroke-width="2" d="M47.48 93v41"/><text id="border-2" font-family="PTMono-Regular, PT Mono" font-size="12" font-weight="normal"><tspan x="376.9" y="76" fill="#C06334">border</tspan> <tspan x="384.1" y="90" fill="#1C85B5">25px</tspan></text><text id="padding-2" font-family="PTMono-Regular, PT Mono" font-size="12" font-weight="normal"><tspan x="339.3" y="16" fill="#C06334">padding</tspan> <tspan x="350.1" y="30" fill="#1C85B5">20px</tspan></text><text id="scrollbar" font-family="PTMono-Regular, PT Mono" font-size="12" font-weight="normal"><tspan x="349.1" y="48" fill="#C06334">scrollbar</tspan> <tspan x="367.1" y="62" fill="#1C85B5">16px</tspan></text><path id="Line-17" stroke="#C06334" stroke-dasharray="3,6" stroke-linecap="square" stroke-width="2" d="M371.48 93v43"/><path id="Line-20" stroke="#C06334" stroke-dasharray="3,6" stroke-linecap="square" stroke-width="2" d="M385.48 93v43"/><path id="Line-18" stroke="#C06334" stroke-dasharray="3,6" stroke-linecap="square" stroke-width="2" d="M410.48 93v41"/><path id="Line-16" stroke="#C06334" stroke-dasharray="3,6" stroke-linecap="square" stroke-width="2" d="M66.48 93v41"/><path id="Line-19" stroke="#C06334" stroke-dasharray="3,6" stroke-linecap="square" stroke-width="2" d="M353.48 93v41"/><text id="clientWidth-=-20+284" font-family="PTMono-Regular, PT Mono" font-size="14" font-weight="normal"><tspan x="80.3" y="473" fill="#C06334">clientWidth = </tspan> <tspan x="197.9" y="473" fill="#1C85B5">20+284+20 </tspan> <tspan x="281.9" y="473" fill="#C06334">=</tspan> <tspan x="290.3" y="473" fill="#1C85B5"> 324px</tspan></text><path id="Line-24" stroke="#C06334" stroke-dasharray="3,6" stroke-linecap="square" stroke-width="2" d="M46.5 376v88.142"/><path id="Line-25" stroke="#C06334" stroke-dasharray="3,6" stroke-linecap="square" stroke-width="2" d="M370.5 376v88.142"/><path id="Line-22" fill="#C06334" fill-rule="nonzero" d="M354 445.071l14 7-14 7v-6.001H62v6.001l-14-7 14-7v5.999h292v-5.999z"/><text id="clientHeight:240px" font-family="PTMono-Regular, PT Mono" font-size="14" font-weight="normal" transform="rotate(-90 488.5 277.5)"><tspan x="412.9" y="282" fill="#C06334">clientHeight:</tspan> <tspan x="522.1" y="282" fill="#1C85B5">240px</tspan></text><path id="Line-27" stroke="#C06334" stroke-dasharray="3,6" stroke-linecap="square" stroke-width="2" d="M365.5 156h120"/><path id="Line-28" stroke="#C06334" stroke-dasharray="3,6" stroke-linecap="square" stroke-width="2" d="M365.5 394h120"/><path id="Line-26" fill="#C06334" fill-rule="nonzero" d="M476 160l7 14-6-.001V375h6l-7 14-7-14h6V173.999l-6 .001 7-14z"/><text id="height:200px" font-family="PTMono-Regular, PT Mono" font-size="12" font-weight="normal" transform="rotate(-90 422.5 274)"><tspan x="379.3" y="278" fill="#C06334">height:</tspan> <tspan x="429.7" y="278" fill="#1C85B5">200px</tspan></text><path id="Line-3" stroke="#C06334" stroke-dasharray="3,6" stroke-linecap="square" stroke-width="2" d="M353.5 175h88.142"/><path id="Line-2" stroke="#C06334" stroke-dasharray="3,6" stroke-linecap="square" stroke-width="2" d="M353.5 377h88.142"/><path id="Line" fill="#C06334" fill-rule="nonzero" d="M435 177.5l7 14h-6V360h6l-7 14-7-14h6V191.5h-6l7-14z"/><text id="Introduction" fill="#643B0C" font-family="OpenSans-Bold, Open Sans" font-size="16" font-weight="bold"><tspan x="69" y="193">Introduction</tspan>  <tspan x="69" y="221" font-family="OpenSans-Regular, Open Sans" font-size="14" font-weight="normal">This Ecma Standard is based on several </tspan> <tspan x="69" y="240" font-family="OpenSans-Regular, Open Sans" font-size="14" font-weight="normal">originating technologies, the most well </tspan> <tspan x="69" y="259" font-family="OpenSans-Regular, Open Sans" font-size="14" font-weight="normal">known being JavaScript (Netscape) and </tspan> <tspan x="69" y="278" font-family="OpenSans-Regular, Open Sans" font-size="14" font-weight="normal">JScript (Microsoft). The language was </tspan> <tspan x="69" y="297" font-family="OpenSans-Regular, Open Sans" font-size="14" font-weight="normal">invented by Brendan Eich at Netscape and </tspan> <tspan x="69" y="316" font-family="OpenSans-Regular, Open Sans" font-size="14" font-weight="normal">first appeared in that company’s Navigator </tspan> <tspan x="69" y="335" font-family="OpenSans-Regular, Open Sans" font-size="14" font-weight="normal">2.0 browser. It has appeared in all </tspan> <tspan x="69" y="354" font-family="OpenSans-Regular, Open Sans" font-size="14" font-weight="normal">subsequent browsers from Netscape and </tspan> <tspan x="69" y="373" font-family="OpenSans-Regular, Open Sans" font-size="14" font-weight="normal">in all browsers from Microsoft starting with </tspan></text></g></g></svg>

<?xml version="1.0" encoding="UTF-8"?>
<svg width="500px" height="493px" viewBox="0 0 500 493" version="1.1" xmlns="http://www.w3.org/2000/svg" xmlns:xlink="http://www.w3.org/1999/xlink">
    <!-- Generator: sketchtool 61.2 (101010) - https://sketch.com -->
    <title>metric-client-width-height.svg</title>
    <desc>Created with sketchtool.</desc>
    <defs>
        <linearGradient x1="50%" y1="0%" x2="50%" y2="100%" id="linearGradient-1">
            <stop stop-color="#FFFFFF" offset="0%"></stop>
            <stop stop-color="#F1F1F1" offset="100%"></stop>
        </linearGradient>
        <linearGradient x1="50%" y1="0%" x2="50%" y2="100%" id="linearGradient-2">
            <stop stop-color="#FFFFFF" offset="0%"></stop>
            <stop stop-color="#F1F1F1" offset="100%"></stop>
        </linearGradient>
    </defs>
    <g id="dom" stroke="none" stroke-width="1" fill="none" fill-rule="evenodd">
        <g id="metric-client-width-height.svg">
            <path d="M411,130 L411,420 L21,420 L21,130 L411,130 Z M386,155 L46,155 L46,395 L386,395 L386,155 Z" id="Rectangle-2" fill-opacity="0.88" fill="#E8C48F"></path>
            <path d="M67,177 L67,376 L350,376 L350,177 L67,177 Z" id="Rectangle-1" stroke="#EE6B47" stroke-width="2"></path>
            <g id="Scrollbar" transform="translate(370.000000, 155.000000)">
                <rect id="Rectangle-19" stroke="#E9E9E9" fill="#F3F2F2" x="0.5" y="0.5" width="15" height="239" rx="3"></rect>
                <g id="Rectangle-18-+-Triangle-1">
                    <rect id="Rectangle-18" stroke="#CFCFCF" fill="url(#linearGradient-1)" x="0.5" y="0.5" width="15" height="19" rx="3"></rect>
                    <polygon id="Triangle-1" fill="#92979F" points="8 7 11.2 13 4.8 13"></polygon>
                </g>
                <g id="Rectangle-18-+-Triangle-2" transform="translate(8.000000, 230.000000) scale(1, -1) translate(-8.000000, -230.000000) translate(0.000000, 220.000000)">
                    <rect id="Rectangle-18" stroke="#CFCFCF" fill="url(#linearGradient-1)" x="0.5" y="0.5" width="15" height="19" rx="3"></rect>
                    <polygon id="Triangle-1" fill="#92979F" points="8 7 11.2 13 4.8 13"></polygon>
                </g>
                <g id="Rectangle-18-+-Triangle-3-+-Group" transform="translate(0.000000, 50.000000)">
                    <g id="Rectangle-18-+-Triangle-3" transform="translate(8.000000, 25.500000) scale(1, -1) translate(-8.000000, -25.500000) " fill="url(#linearGradient-2)" stroke="#CFCFCF">
                        <rect id="Rectangle-18" x="0.5" y="0.5" width="15" height="50" rx="3"></rect>
                    </g>
                    <g id="Group" transform="translate(4.000000, 20.000000)" fill="#D8D8D8" stroke="#979797">
                        <rect id="Rectangle-22" x="0.5" y="0.5" width="7" height="1"></rect>
                        <rect id="Rectangle-23" x="0.5" y="3.5" width="7" height="1"></rect>
                        <rect id="Rectangle-24" x="0.5" y="6.5" width="7" height="1"></rect>
                        <rect id="Rectangle-25" x="0.5" y="9.5" width="7" height="1"></rect>
                    </g>
                </g>
            </g>
            <text id="border" font-family="PTMono-Regular, PT Mono" font-size="12" font-weight="normal">
                <tspan x="12.9" y="75" fill="#EE6B47">border</tspan>
                <tspan x="20.1" y="89" fill="#3B86C4">25px</tspan>
            </text>
            <text id="padding" font-family="PTMono-Regular, PT Mono" font-size="12" font-weight="normal">
                <tspan x="32.3" y="45" fill="#EE6B47">padding</tspan>
                <tspan x="43.1" y="59" fill="#3B86C4">20px</tspan>
            </text>
            <text id="content-width:284px" font-family="PTMono-Regular, PT Mono" font-size="12" font-weight="normal">
                <tspan x="139.1" y="109" fill="#EE6B47">content width:</tspan>
                <tspan x="239.9" y="109" fill="#3B86C4">284px</tspan>
            </text>
            <path id="Line-15" d="M336.5,110 L350.5,117 L336.5,124 L336.5,118 L82.679,118 L82.6799927,124 L68.6799927,117 L82.6799927,110 L82.679,116 L336.5,116 L336.5,110 Z" fill="#EE6B47" fill-rule="nonzero"></path>
            <line x1="-0.46484375" y1="114.945312" x2="42.5351562" y2="114.945312" id="Line-14" stroke="#EE6B47" stroke-width="2" stroke-linecap="square" stroke-dasharray="3,6" transform="translate(21.480469, 114.945312) rotate(-270.000000) translate(-21.480469, -114.945312) "></line>
            <line x1="26.5351562" y1="113.945312" x2="67.5351562" y2="113.945312" id="Line-13" stroke="#EE6B47" stroke-width="2" stroke-linecap="square" stroke-dasharray="3,6" transform="translate(47.480469, 113.945312) rotate(-270.000000) translate(-47.480469, -113.945312) "></line>
            <text id="border-2" font-family="PTMono-Regular, PT Mono" font-size="12" font-weight="normal">
                <tspan x="376.9" y="76" fill="#EE6B47">border</tspan>
                <tspan x="384.1" y="90" fill="#3B86C4">25px</tspan>
            </text>
            <text id="padding-2" font-family="PTMono-Regular, PT Mono" font-size="12" font-weight="normal">
                <tspan x="339.3" y="16" fill="#EE6B47">padding</tspan>
                <tspan x="350.1" y="30" fill="#3B86C4">20px</tspan>
            </text>
            <text id="scrollbar" font-family="PTMono-Regular, PT Mono" font-size="12" font-weight="normal">
                <tspan x="349.1" y="48" fill="#EE6B47">scrollbar</tspan>
                <tspan x="367.1" y="62" fill="#3B86C4">16px</tspan>
            </text>
            <line x1="349.535156" y1="114.945312" x2="392.535156" y2="114.945312" id="Line-17" stroke="#EE6B47" stroke-width="2" stroke-linecap="square" stroke-dasharray="3,6" transform="translate(371.480469, 114.945312) rotate(-270.000000) translate(-371.480469, -114.945312) "></line>
            <line x1="363.535156" y1="114.945312" x2="406.535156" y2="114.945312" id="Line-20" stroke="#EE6B47" stroke-width="2" stroke-linecap="square" stroke-dasharray="3,6" transform="translate(385.480469, 114.945312) rotate(-270.000000) translate(-385.480469, -114.945312) "></line>
            <line x1="389.535156" y1="113.945312" x2="430.535156" y2="113.945312" id="Line-18" stroke="#EE6B47" stroke-width="2" stroke-linecap="square" stroke-dasharray="3,6" transform="translate(410.480469, 113.945312) rotate(-270.000000) translate(-410.480469, -113.945312) "></line>
            <line x1="45.5351562" y1="113.945312" x2="86.5351562" y2="113.945312" id="Line-16" stroke="#EE6B47" stroke-width="2" stroke-linecap="square" stroke-dasharray="3,6" transform="translate(66.480469, 113.945312) rotate(-270.000000) translate(-66.480469, -113.945312) "></line>
            <line x1="332.535156" y1="113.945312" x2="373.535156" y2="113.945312" id="Line-19" stroke="#EE6B47" stroke-width="2" stroke-linecap="square" stroke-dasharray="3,6" transform="translate(353.480469, 113.945312) rotate(-270.000000) translate(-353.480469, -113.945312) "></line>
            <text id="clientWidth-=-20+284" font-family="PTMono-Regular, PT Mono" font-size="14" font-weight="normal">
                <tspan x="80.3" y="473" fill="#EE6B47">clientWidth = </tspan>
                <tspan x="197.9" y="473" fill="#3B86C4">20+284+20 </tspan>
                <tspan x="281.9" y="473" fill="#F38158">=</tspan>
                <tspan x="290.3" y="473" fill="#3B86C4"> 324px</tspan>
            </text>
            <line x1="46.5" y1="376" x2="46.5" y2="464.14193" id="Line-24" stroke="#EE6B47" stroke-width="2" stroke-linecap="square" stroke-dasharray="3,6"></line>
            <line x1="370.5" y1="376" x2="370.5" y2="464.14193" id="Line-25" stroke="#EE6B47" stroke-width="2" stroke-linecap="square" stroke-dasharray="3,6"></line>
            <path id="Line-22" d="M354,445.070965 L368,452.070965 L354,459.070965 L354,453.07 L62,453.07 L62,459.070965 L48,452.070965 L62,445.070965 L62,451.07 L354,451.07 L354,445.070965 Z" fill="#EE6B47" fill-rule="nonzero"></path>
            <text id="clientHeight:240px" transform="translate(488.500000, 277.500000) rotate(-90.000000) translate(-488.500000, -277.500000) " font-family="PTMono-Regular, PT Mono" font-size="14" font-weight="normal">
                <tspan x="412.9" y="282" fill="#EE6B47">clientHeight:</tspan>
                <tspan x="522.1" y="282" fill="#3B86C4">240px</tspan>
            </text>
            <line x1="365.5" y1="156" x2="485.5" y2="156" id="Line-27" stroke="#EE6B47" stroke-width="2" stroke-linecap="square" stroke-dasharray="3,6"></line>
            <line x1="365.5" y1="394" x2="485.5" y2="394" id="Line-28" stroke="#EE6B47" stroke-width="2" stroke-linecap="square" stroke-dasharray="3,6"></line>
            <path id="Line-26" d="M476,160 L483,174 L477,173.999 L477,375 L483,375 L476,389 L469,375 L475,375 L475,173.999 L469,174 L476,160 Z" fill="#EE6B47" fill-rule="nonzero"></path>
            <text id="height:200px" transform="translate(422.500000, 274.000000) rotate(-90.000000) translate(-422.500000, -274.000000) " font-family="PTMono-Regular, PT Mono" font-size="12" font-weight="normal">
                <tspan x="379.3" y="278" fill="#EE6B47">height:</tspan>
                <tspan x="429.7" y="278" fill="#3B86C4">200px</tspan>
            </text>
            <line x1="353.5" y1="175" x2="441.64193" y2="175" id="Line-3" stroke="#EE6B47" stroke-width="2" stroke-linecap="square" stroke-dasharray="3,6"></line>
            <line x1="353.5" y1="377" x2="441.64193" y2="377" id="Line-2" stroke="#EE6B47" stroke-width="2" stroke-linecap="square" stroke-dasharray="3,6"></line>
            <path id="Line" d="M435,177.5 L442,191.5 L436,191.5 L436,360 L442,360 L435,374 L428,360 L434,360 L434,191.5 L428,191.5 L435,177.5 Z" fill="#EE6B47" fill-rule="nonzero"></path>
            <text id="Introduction" font-family="OpenSans-Bold, Open Sans" font-size="16" font-weight="bold" fill="#5A4739">
                <tspan x="69" y="193">Introduction</tspan>
                <tspan x="169.726562" y="193" font-family="Helvetica" font-size="14" font-weight="normal"></tspan>
                <tspan x="69" y="221" font-family="Helvetica" font-size="14" font-weight="normal">This Ecma Standard is based on several </tspan>
                <tspan x="69" y="238" font-family="Helvetica" font-size="14" font-weight="normal">originating technologies, the most well known </tspan>
                <tspan x="69" y="255" font-family="Helvetica" font-size="14" font-weight="normal">being JavaScript (Netscape) and JScript </tspan>
                <tspan x="69" y="272" font-family="Helvetica" font-size="14" font-weight="normal">(Microsoft). The language was invented by </tspan>
                <tspan x="69" y="289" font-family="Helvetica" font-size="14" font-weight="normal">Brendan Eich at Netscape and first appeared </tspan>
                <tspan x="69" y="306" font-family="Helvetica" font-size="14" font-weight="normal">in that company’s Navigator 2.0 browser. It </tspan>
                <tspan x="69" y="323" font-family="Helvetica" font-size="14" font-weight="normal">has appeared in all subsequent browsers </tspan>
                <tspan x="69" y="340" font-family="Helvetica" font-size="14" font-weight="normal">from Netscape and in all browsers from </tspan>
                <tspan x="69" y="357" font-family="Helvetica" font-size="14" font-weight="normal">Microsoft starting with </tspan>
            </text>
        </g>
    </g>
</svg>
